X:1
T:Carlos de Seixas - Sonata No.24 in D Minor.
T:SONATA rè menor
C:Carlos de Seixas.
%%score { ( 1 3 ) | ( 2 4 ) }
L:1/8
Q:1/4=125
M:4/4
K:F
V:1 treble nm="Harpsichord" snm="Hch."
V:3 treble 
V:2 bass 
V:4 bass 
V:1
!f!"^[Allegro]""^1)" MTD2 MTD2 MTD2 MTD2 | d/A/F/D/ d/A/F/D/ a/f/g/e/ f/d/e/^c/ | %2
 d/A/F/D/ d/A/F/D/ a/f/g/e/"^Carlos Seixas" f/d/e/^c/ | d/A/F/D/ d/A/F/D/ a/g/f/e/ d/c/B/A/ | %4
 B/G/^F/G/ B/G/F/G/ g/=f/e/d/ c/B/A/G/ | A/F/E/F/ A/F/E/F/ | f/e/d/c/ B/A/G/F/ | %7
 G/E/D/E/ G/E/D/E/ e/d/^c/=B/ A/G/F/E/ | F/D/^C/D/ F/D/C/D/ d/e/f/A/ d/e/f/A/ | %9
 ^G/A/=B/E/ G/A/B/E/ d/e/f/A/ d/e/f/A/ | ^G/A/=B/E/ c/d/e/E/ B/c/d/E/ c/d/e/E/ | %11
 =B/c/d/E/ e/d/c/B/ | f/d/c/=B/ ^g/e/d/c/ | a/=g/f/e/ d/c/=B/A/ a/g/f/e/ d/c/B/A/ | %14
 d/c/=B/A/ e/d/c/B/ A/e/^f/^g/ a/^c/d/e/ | A/E/^F/^G/ A/^C/D/E/ A,AA,A | %16
[K:bass] A,,A, A,,[Q:1/4=45]A,[Q:1/4=15]"^[""^]"{^G,,} MTA,,2[Q:1/4=125] z2 |] %17
[K:treble]!f! MTD2 MTD2 MTD2 MTD2 | d/A/F/D/ d/A/F/D/ a/f/g/e/ f/d/e/^c/ | %19
 d/A/F/D/ d/A/F/D/ a/f/g/e/ f/d/e/^c/ | d/A/F/D/ d/A/F/D/ a/g/f/e/ d/c/B/A/ | %21
 B/G/^F/G/ B/G/F/G/ g/=f/e/d/ c/B/A/G/ | A/F/E/F/ A/F/E/F/ f/e/d/c/ B/A/G/F/ | %23
 G/E/D/E/ G/E/D/E/ e/d/^c/=B/ A/G/F/E/ | F/D/^C/D/ F/D/C/D/ d/e/f/A/ d/e/f/A/ | %25
 ^G/A/=B/E/ G/A/B/E/ d/e/f/A/ d/e/f/A/ | ^G/A/=B/E/ c/d/e/E/ B/c/d/E/ c/d/e/E/ | %27
 =B/c/d/E/ e/d/c/B/ | f/d/c/=B/ ^g/e/d/c/ | a/=g/f/e/ d/c/=B/A/ a/g/f/e/ d/c/B/A/ | %30
 d/c/=B/A/ e/d/c/B/ A/e/^f/^g/ a/^c/d/e/ | A/E/^F/^G/ A/^C/D/E/ A,AA,A | %32
[K:bass] A,,A, A,,[Q:1/4=45]A,[Q:1/4=15]"^]""^["{^G,,} MTA,,2[Q:1/4=125] z2 |] %33
[K:treble]!f! MTA2 MTA2 MTA2 MTA2 | a/e/c/A/ a/e/c/A/ | e/c/d/=B/ c/A/B/^G/ | %36
 a/e/c/A/ a/e/c/A/ e/c/d/=B/ c/A/B/^G/ | a/e/c/A/ a/e/c/A/ d/=B/c/A/ B/G/A/^F/ | %38
 g/d/_B/G/ g/d/B/G/ c/A/B/G/ A/F/G/E/ | f/c/A/F/ f/c/A/F/ f/g/a/c/ f/g/a/c/ | d/e/f/B/ d/e/f/B/ | %41
 e/f/g/B/ e/f/g/B/ | ^c/d/e/A/ f/g/a/A/ e/f/g/A/ d/e/f/A/ | ^c/d/e/A/ f/g/a/A/ e/f/g/A/ d/e/f/A/ | %44
 ^c/d/e/A/ a/f/e/d/ b/g/f/e/ ^c'/a/g/f/ | d'/^c'/b/a/ g/f/e/d/ d'/c'/b/a/ g/f/e/d/ | %46
 g/f/e/d/ a/g/f/e/ d/a/=b/^c'/ d'/f/g/a/ | d/A/=B/^c/ d/F/G/A/ DdDd | %48
[K:bass] D,D D,[Q:1/4=45]D[Q:1/4=15]{^C,} MTD,2[Q:1/4=125] z2 |][K:treble]!f! MTA2 MTA2 MTA2 MTA2 | %50
 a/e/c/A/ a/e/c/A/ e/c/d/=B/ c/A/B/^G/ | a/e/c/A/ a/e/c/A/ e/c/d/=B/ c/A/B/^G/ | %52
 a/e/c/A/ a/e/c/A/ d/=B/c/A/ B/G/A/^F/ | g/d/_B/G/ g/d/B/G/ c/A/B/G/ A/F/G/E/ | %54
 f/c/A/F/ f/c/A/F/ f/g/a/c/ f/g/a/c/ | d/e/f/B/ d/e/f/B/ e/f/g/B/ e/f/g/B/ | %56
 ^c/d/e/A/ f/g/a/A/ e/f/g/A/ d/e/f/A/ | ^c/d/e/A/ f/g/a/A/ e/f/g/A/ d/e/f/A/ | %58
 ^c/d/e/A/ a/f/e/d/ b/g/f/e/ ^c'/a/g/f/ | d'/^c'/b/a/ g/f/e/d/ d'/c'/b/a/ g/f/e/d/ | %60
 g/f/e/d/ a/g/f/e/ d/a/=b/^c'/ d'/f/g/a/ | d/A/=B/^c/ d/F/G/A/ DdDd | %62
[K:bass] D,D D,[Q:1/4=40]D[Q:1/4=10]{^C,} MTD,2[Q:1/4=80] z2 |] %63
V:2
 MT[D,,D,]2 MT[D,,D,]2 MT[D,,D,]2 MT[D,,D,]2 | [D,,D,]2 z2 [D,,D,]2 [A,,A,]2 | %2
 [D,,D,]2 z2 [D,,D,]2 [A,,A,]2 | [D,,D,]2 z2 [D,,D,]2 [F,,F,]2 | [G,,G,]2 z2 [C,,C,]2 [E,,E,]2 | %5
 [F,,F,]2 z2 | [D,,D,]2 [F,,F,]2 | [E,,E,]2 z2 [^C,,^C,]2 [E,,E,]2 | %8
 [D,,D,]2 z2 [D,,D,]2 [F,,F,]2 | [E,,E,]2 z2 [D,,D,]2 [F,,F,]2 | %10
 [E,,E,]2 [A,,A,]2 [^G,,^G,]2 [A,,A,]2 | [^G,,^G,]2 [A,,A,]2 | [D,,D,]2 [E,,E,]2 | %13
 [F,,F,]2 z2 [C,,C,]2 z2 | [D,,D,]2 [E,,E,]2 [A,,A,]2 [A,,A,]2 | [A,,A,]2 [A,,A,]2 A,,A,A,,A, | %16
 A,,,A,, A,,,A,,{^G,,,} MA,,,2 z2 |] MT[D,,D,]2 MT[D,,D,]2 MT[D,,D,]2 MT[D,,D,]2 | %18
 [D,,D,]2 z2 [D,,D,]2 [A,,A,]2 | [D,,D,]2 z2 [D,,D,]2 [A,,A,]2 | [D,,D,]2 z2 [D,,D,]2 [F,,F,]2 | %21
 [G,,G,]2 z2 [C,,C,]2 [E,,E,]2 | [F,,F,]2 z2 [D,,D,]2 [F,,F,]2 | [E,,E,]2 z2 [^C,,^C,]2 [E,,E,]2 | %24
 [D,,D,]2 z2 [D,,D,]2 [F,,F,]2 | [E,,E,]2 z2 [D,,D,]2 [F,,F,]2 | %26
 [E,,E,]2 [A,,A,]2 [^G,,^G,]2 [A,,A,]2 | [^G,,^G,]2 [A,,A,]2 | [D,,D,]2 [E,,E,]2 | %29
 [F,,F,]2 z2 [C,,C,]2 z2 | [D,,D,]2 [E,,E,]2 [A,,A,]2 [A,,A,]2 | [A,,A,]2 [A,,A,]2 A,,A,A,,A, | %32
 A,,,A,, A,,,A,,{^G,,,} MA,,,2 z2 |] MT[A,,A,]2 MT[A,,A,]2 MT[A,,A,]2 MT[A,,A,]2 | [A,,A,]2 z2 | %35
 [A,,A,]2 [E,,E,]2 | [A,,A,]2 z2 [A,,A,]2 [E,,E,]2 | [A,,A,]2 z2 [F,,F,]2 [C,,C,]2 | %38
 [G,,G,]2 z2 [F,,F,]2 [C,,C,]2 | [F,,F,]2 z2 [F,,F,]2 [A,,A,]2 | [B,,B,]2 z2 | [E,,E,]2 [G,,G,]2 | %42
 [A,,A,]2 [F,,F,]2 [^C,,^C,]2 [D,,D,]2 | [A,,A,]2 [F,,F,]2 [^C,,^C,]2 [D,,D,]2 | %44
 [A,,A,]2 [F,,F,]2 [G,,G,]2 [A,,A,]2 | [B,,B,]2 z2 [F,,F,]2 z2 | %46
 [G,,B,,D,G,]2 [A,,^C,E,A,]2 [D,,D,]2 [D,D]2 | [D,,D,]2 [D,D]2 D,,D, D,,D, | %48
 D,,D, D,,D,{^C,,} MD,,2 z2 |] MT[A,,A,]2 MT[A,,A,]2 MT[A,,A,]2 MT[A,,A,]2 | %50
 [A,,A,]2 z2 [A,,A,]2 [E,,E,]2 | [A,,A,]2 z2 [A,,A,]2 [E,,E,]2 | [A,,A,]2 z2 [F,,F,]2 [C,,C,]2 | %53
 [G,,G,]2 z2 [F,,F,]2 [C,,C,]2 | [F,,F,]2 z2 [F,,F,]2 [A,,A,]2 | [B,,B,]2 z2 [E,,E,]2 [G,,G,]2 | %56
 [A,,A,]2 [F,,F,]2 [^C,,^C,]2 [D,,D,]2 | [A,,A,]2 [F,,F,]2 [^C,,^C,]2 [D,,D,]2 | %58
 [A,,A,]2 [F,,F,]2 [G,,G,]2 [A,,A,]2 | [B,,B,]2 z2 [F,,F,]2 z2 | %60
 [G,,B,,D,G,]2 [A,,^C,E,A,]2 [D,,D,]2 [D,D]2 | [D,,D,]2 [D,D]2 D,,D, D,,D, | %62
 D,,D, D,,D,{^C,,} MD,,2 z2 |] %63
V:3
 x8 | x8 | x8 | x8 | x8 | x4 | x4 | x8 | x8 | x8 | x8 | x4 | x4 | x8 | x8 | x8 | %16
[K:bass] x3- x/x/ x4 |][K:treble] x8 | x8 | x8 | x8 | x8 | x8 | x8 | x8 | x8 | x8 | x4 | x4 | x8 | %30
 x8 | x8 |[K:bass] x3- x/x/ x4 |][K:treble] x8 | x4 | x4 | x8 | x8 | x8 | x8 | x4 | x4 | x8 | x8 | %44
 x8 | x8 | x8 | x8 |[K:bass] x3- x/x/ x4 |][K:treble] x8 | x8 | x8 | x8 | x8 | x8 | x8 | x8 | x8 | %58
 x8 | x8 | x8 | x8 |[K:bass] x3- x/x/ x4 |] %63
V:4
 x8 | x8 | x8 | x8 | x8 | x4 | x4 | x8 | x8 | x8 | x8 | x4 | x4 | x8 | x8 | x8 | x3- x/x/ x4 |] %17
 x8 | x8 | x8 | x8 | x8 | x8 | x8 | x8 | x8 | x8 | x4 | x4 | x8 | x8 | x8 | x3- x/x/ x4 |] x8 | %34
 x4 | x4 | x8 | x8 | x8 | x8 | x4 | x4 | x8 | x8 | x8 | x8 | x8 | x8 | x3- x/x/ x4 |] x8 | x8 | %51
 x8 | x8 | x8 | x8 | x8 | x8 | x8 | x8 | x8 | x8 | x8 | x3- x/x/ x4 |] %63

